!! 00000] TT[WS
!!!OTL: Liao bing
!!!ARE: Asia, China,ÿShanxi Heshun
!! Ethnic Group: Han
!! WI, 120 (1)
!!!SCT: J0142
!!!YEM: Copyright 1995, estate of Helmut Schaffrath.
**kern
*ICvox
*Ivox
*M2/4
*k[b-]
*F:
{8a
4a
8cc
=1
8dd
8ff
8dd
8cc
=2
8cc
8dd
8cc
8a
=3
2g}
=4
{8cc
8cc
8a
8g
=5
8cc
8cc
8a
8g
=6
4cc
8a
8dd
=7
2cc}
=8
{8cc
8ff
8dd
8cc
=9
8a
8b-
8a
8g
=10
8a
8b-
8a
8g
=11
2f}
=12
{8dd
8ee
8dd
8cc
=13
8dd
8ff
8a
8cc
=14
8dd
8ee
8dd
8cc
=15
2dd}
=16
{4g
8g
8a
=17
4g
4f
=18
2d}
==
!!!AGN: Xiaodiao. Qingge
!!!ONB: ESAC (Essen Associative Code) Database: CHINA
!!!AMT: simple duple
!!!AIN: vox
!!!EED: Helmut Schaffrath
!!!EEV: 1.0
*-
